X:16038
T:Storm,The. JC.078
M:3/4
L:1/8
Q:100
S:John Clare,Poet,Helpston. (1793-1864)
R:Air
O:England
A:Northamptonshire
N:
Z:P Headford
K:G
B>d|c2(BA)(GF)|G2A2B>d|c2B2A>F|G4Bd|c2BAGF|!
G2A2Bd|c2B2AF|G2zBcB|e2(ed)(cB)|A2A2BA|G2(FE) (FG/A/)|!
D4AB|c2BAdF|(GA/B/)A2g(f/e/)|d2(cB)(cA)|G4|]
W:Song text exists. See Deacon.
